X: 2224
M: C
L: 1/8
K: D
uD2 |\
(fB)BA Bcde | (fB)BA BcdA |\
(fB)BA BcdB | (AF)EF D2 :|
|: ug2 |\
fgab agde | fdad bdfd |\
efga beef | (3(gfe) (be) gfeg |\
fgaf bfaf | defd efde |\
(fB)BA BcdB | (AF)EF D2 :|


